X:18181
T:Valse quebecoise
C:Y. Dour
M:3/4
L:1/4
K:G
D/D/|DDC|B,2B,/B,/|B,B,C|D2B,/D/|\
DE=F|E3-|E2E/F/|GFE|\
DB,/D/ B,/D/|FED|CA,/C/ A,/C/|
EDC|B,/B,/ G,/B,/ D/E/|D2G|GF=F|E C/E/ C/E/|\
G/B,/ F/B,/ E/B,/|DB,/D/ B,/D/|\
F/B,/ E/B,/ D/B,/|CA,/C/ A,/C/|
CB,A,|G,/B,/ D/B,/ G/D/|B/G/ D/G/ B,/D/|G,3||\
K:C
E>CE|C2B,|D>G,G,|G,CD|\
E>CE|C2G,|G,B,D|C/C/ G,/C/ E/G/|c3:|
